assets/m-Cszj2XTK.svg

<svg width="292" height="138" viewBox="0 0 292 138" fill="none" xmlns="http://www.w3.org/2000/svg">
<path d="M33.2795 137.033C29.3642 137.033 25.449 136.753 21.5338 136.194C17.805 135.635 14.3559 134.516 11.1864 132.838C8.20335 131.347 5.68642 129.296 3.63558 126.686C1.58475 124.076 0.466109 120.813 0.279669 116.898C0.0932299 112.237 1.58475 107.949 4.75422 104.033C7.92369 99.9316 12.0254 97.8808 17.0592 97.8808C20.2287 97.8808 22.8389 98.813 24.8897 100.677C27.127 102.355 28.0592 104.593 27.6863 107.389C27.3134 109.626 26.5676 111.491 25.449 112.982C24.3304 114.474 23.0253 115.779 21.5338 116.898C20.2287 118.203 19.1101 119.321 18.1779 120.254C17.2457 121.186 16.5931 122.398 16.2203 123.889C15.6609 126.686 17.0592 129.016 20.4151 130.881C23.9575 132.745 29.271 133.677 36.3557 133.677C42.3218 133.677 49.0336 132.652 56.4912 130.601C64.1352 128.55 71.9657 125.753 79.9826 122.211C87.9995 118.669 96.1096 114.567 104.313 109.906C112.516 105.059 120.254 99.9316 127.525 94.5249C140.389 85.0165 153.067 74.2962 165.558 62.3641C178.236 50.2455 191.567 37.754 205.55 24.8897C198.838 23.5846 191.007 22.5592 182.058 21.8134C173.109 20.8813 162.482 20.4152 150.177 20.4152C142.533 20.4152 135.075 21.1609 127.804 22.6524C120.533 24.1439 113.915 26.3812 107.949 29.3643C101.982 32.3473 96.9486 36.1693 92.8469 40.8303C88.7452 45.3048 86.1351 50.7116 85.0164 57.0505C84.4571 59.8471 84.2707 62.8302 84.4571 65.9996C84.6436 68.9827 85.3893 71.8725 86.6944 74.6691C88.1859 77.4657 90.33 80.0758 93.1266 82.4995C95.9232 84.9232 99.5587 86.8809 104.033 88.3724C105.525 88.9317 106.457 89.2113 106.83 89.2113C107.389 89.2113 107.576 89.3978 107.389 89.7707C107.016 90.8893 105.245 90.9825 102.076 90.0503C93.8723 87.6266 87.7198 83.2453 83.6181 76.9063C79.7029 70.5674 78.1182 63.6691 78.8639 56.2116C79.6097 49.6862 81.6605 43.8133 85.0164 38.593C88.5588 33.1863 93.313 28.7117 99.2791 25.1694C105.432 21.4406 112.796 18.7372 121.372 17.0592C130.135 15.1949 139.923 14.4491 150.736 14.822C162.482 15.1948 173.389 16.3135 183.457 18.1779C193.711 20.0423 202.007 21.4406 208.346 22.3728C209.838 20.5084 211.609 18.7372 213.66 17.0592C214.965 15.9406 216.363 14.822 217.855 13.7033C219.346 12.3983 220.838 11.8389 222.329 12.0254C226.058 12.5847 225.872 15.0084 221.77 19.2965C221.211 20.0423 220.651 20.788 220.092 21.5338C219.533 22.2796 218.88 23.0253 218.134 23.7711C221.677 24.3304 225.312 24.7965 229.041 25.1694C232.77 25.3558 235.939 25.3558 238.549 25.1694C242.278 24.9829 246.753 24.61 251.973 24.0507C257.38 23.4914 262.507 22.1863 267.354 20.1355C272.202 18.0847 276.117 16.0338 279.1 13.983C282.083 11.7457 284.414 9.50844 286.091 7.27117C287.956 5.0339 288.702 3.44916 288.329 2.51696C288.142 1.58476 288.422 0.932221 289.168 0.559341C290.1 0.186467 290.659 0.932226 290.846 2.79662C291.032 4.47458 290.752 6.05931 290.007 7.55083C289.075 9.41522 287.863 11.4661 286.371 13.7033C284.88 15.7542 282.549 18.3643 279.38 21.5338C276.024 25.0761 272.295 29.0846 268.193 33.5591C264.278 37.8473 260.176 42.3218 255.888 46.9828C251.787 51.4573 247.685 56.0251 243.583 60.6861C239.668 65.3471 236.032 69.7284 232.677 73.8301C229.134 78.3046 225.499 82.8724 221.77 87.5334C218.227 92.1944 215.058 96.6689 212.261 100.957C209.465 105.245 207.134 109.254 205.27 112.982C203.592 116.525 202.753 119.601 202.753 122.211C202.753 124.635 203.872 125.847 206.109 125.847C208.346 125.847 211.329 124.821 215.058 122.77C218.973 120.72 223.168 117.83 227.643 114.101C230.439 111.864 232.677 110.093 234.355 108.787C236.032 107.296 237.617 105.804 239.109 104.313C239.854 103.754 240.6 103.288 241.346 102.915C242.092 102.355 242.651 102.262 243.024 102.635C243.397 103.008 243.117 103.66 242.185 104.593C241.439 105.525 240.88 106.177 240.507 106.55C238.643 108.228 236.592 109.999 234.355 111.864C232.304 113.728 229.6 116.059 226.244 118.855C223.448 121.093 219.905 123.516 215.617 126.126C211.329 128.55 207.228 129.855 203.312 130.042C199.77 130.228 196.694 129.576 194.084 128.084C191.66 126.592 190.541 123.796 190.728 119.694C190.914 113.915 192.872 108.042 196.601 102.076C200.516 95.9232 205.456 88.9317 211.422 81.1012C214.219 77.5589 217.575 73.5504 221.49 69.0759C225.405 64.6013 229.414 60.1268 233.516 55.6522C237.804 50.9912 241.999 46.6099 246.1 42.5082C250.388 38.2201 254.304 34.5846 257.846 31.6015H257.566C248.058 38.6862 238.643 46.1438 229.321 53.9743C219.999 61.6183 210.677 69.3555 201.355 77.186C190.541 86.3215 181.033 94.7113 172.829 102.355C164.813 109.999 156.516 117.643 147.94 125.287C146.821 126.406 145.609 127.525 144.304 128.643C143.186 129.762 141.974 129.855 140.669 128.923C139.55 127.991 139.177 126.779 139.55 125.287C139.923 123.796 140.575 122.491 141.508 121.372C145.609 115.779 150.27 108.881 155.491 100.677C160.711 92.474 166.024 84.1775 171.431 75.7877C177.024 67.2115 182.338 59.1014 187.372 51.4573C192.592 43.8133 197.067 37.6608 200.795 32.9998H200.516C197.906 35.4235 193.897 39.3388 188.49 44.7455C183.084 49.9658 176.931 55.7454 170.033 62.0844C163.321 68.4233 156.33 74.7623 149.058 81.1012C141.787 87.4402 135.075 92.8469 128.923 97.3215C122.025 102.542 114.474 107.576 106.271 112.423C98.2537 117.084 90.0503 121.279 81.6605 125.008C73.2707 128.55 64.9742 131.44 56.7709 133.677C48.5675 135.914 40.8303 137.033 33.5591 137.033H33.2795ZM169.194 101.237C171.99 98.6265 175.346 95.6435 179.262 92.2876C183.177 88.7452 187.465 85.0165 192.126 81.1012C196.787 77.186 201.541 73.1775 206.389 69.0759C211.422 64.7878 216.363 60.6861 221.211 56.7709C229.041 50.4319 236.405 44.6523 243.304 39.432C250.202 34.0252 257.287 28.8049 264.558 23.7711V23.4914C260.456 24.9829 255.982 26.1016 251.134 26.8473C246.473 27.4066 241.999 27.7795 237.71 27.966C234.541 27.966 230.999 27.8727 227.083 27.6863C223.355 27.3134 219.719 26.9405 216.177 26.5677C212.821 31.4151 209.092 37.1947 204.99 43.9065C200.889 50.6184 196.787 57.4234 192.685 64.3217C188.584 71.2199 184.482 77.9318 180.38 84.4571C176.279 90.9825 172.55 96.4825 169.194 100.957V101.237Z" fill="url(#paint0_linear_2494_633)"/>
<defs>
<linearGradient id="paint0_linear_2494_633" x1="4.92012" y1="61.8396" x2="253.899" y2="61.8396" gradientUnits="userSpaceOnUse">
<stop stop-color="#F6DF75"/>
<stop offset="0.586538" stop-color="#FFB200"/>
<stop offset="0.793269" stop-color="#FBE47C"/>
<stop offset="0.975962" stop-color="#EFD86E"/>
</linearGradient>
</defs>
</svg>

<svg xmlns="http://www.w3.org/2000/svg" width="292" height="138" fill="none" viewBox="0 0 292 138"><path fill="url(#a)" d="M33.28 137.033a83 83 0 0 1-11.746-.839q-5.593-.839-10.348-3.356a22 22 0 0 1-7.55-6.152Q.559 122.771.28 116.898q-.28-6.991 4.474-12.865 4.755-6.152 12.305-6.152 4.755 0 7.83 2.796 3.357 2.517 2.797 6.712-.559 3.356-2.237 5.593a19.5 19.5 0 0 1-3.915 3.916l-3.356 3.356q-1.398 1.398-1.958 3.635-.839 4.195 4.195 6.992 5.314 2.796 15.94 2.796 8.95 0 20.136-3.076 11.466-3.077 23.492-8.39 12.025-5.313 24.33-12.305 12.305-7.27 23.212-15.381 19.296-14.263 38.033-32.16A2875 2875 0 0 1 205.55 24.89q-10.068-1.957-23.492-3.077-13.423-1.398-31.881-1.398-11.466 0-22.373 2.237-10.906 2.238-19.855 6.712T92.847 40.83q-6.153 6.713-7.83 16.22-.84 4.195-.56 8.95.28 4.475 2.237 8.67 2.238 4.194 6.433 7.83 4.195 3.634 10.906 5.872 2.238.84 2.797.84.839 0 .559.559-.56 1.678-5.313.28-12.305-3.636-18.458-13.145-5.873-9.508-4.754-20.694 1.119-9.789 6.152-17.619 5.314-8.11 14.263-13.424 9.23-5.593 22.093-8.11 13.145-2.796 29.364-2.237 17.619.56 32.721 3.356 15.38 2.797 24.889 4.195 2.238-2.797 5.314-5.314a82 82 0 0 1 4.195-3.356q2.237-1.957 4.474-1.678 5.594.84-.559 7.272l-1.678 2.237a21 21 0 0 1-1.958 2.237q5.314.84 10.907 1.398 5.593.28 9.508 0 5.594-.28 13.424-1.118 8.11-.84 15.381-3.915 7.272-3.077 11.746-6.153 4.475-3.356 6.991-6.712 2.798-3.356 2.238-4.754-.28-1.398.839-1.958 1.398-.56 1.678 2.238a8.36 8.36 0 0 1-.839 4.754q-1.398 2.796-3.636 6.152-2.237 3.077-6.991 7.83-5.034 5.315-11.187 12.026a4793 4793 0 0 1-12.305 13.424 913 913 0 0 0-12.305 13.703 1316 1316 0 0 0-10.906 13.144 3479 3479 0 0 1-10.907 13.703q-5.314 6.992-9.509 13.424t-6.991 12.025q-2.517 5.314-2.517 9.229 0 3.636 3.356 3.636t8.949-3.077q5.873-3.075 12.585-8.669a668 668 0 0 1 6.712-5.314 112 112 0 0 0 4.754-4.474 14.7 14.7 0 0 1 2.237-1.398q1.119-.84 1.678-.28.56.559-.839 1.958-1.119 1.398-1.678 1.957a215 215 0 0 1-6.152 5.314q-3.077 2.797-8.111 6.991-4.194 3.356-10.627 7.271-6.431 3.636-12.305 3.916-5.313.28-9.228-1.958-3.636-2.237-3.356-8.39.28-8.669 5.873-17.618 5.872-9.229 14.821-20.975 4.195-5.313 10.068-12.025a777 777 0 0 1 12.026-13.424A438 438 0 0 1 246.1 42.508q6.433-6.431 11.746-10.907h-.28a618 618 0 0 0-28.245 22.373 3068 3068 0 0 0-27.966 23.212q-16.22 13.703-28.526 25.169a1006 1006 0 0 1-24.889 22.932 64 64 0 0 1-3.636 3.356q-1.677 1.678-3.635.28-1.679-1.398-1.119-3.636.559-2.237 1.958-3.915 6.151-8.39 13.983-20.695 7.83-12.305 15.94-24.89a6516 6516 0 0 1 15.941-24.33q7.83-11.466 13.423-18.457h-.279q-3.915 3.635-12.026 11.746-8.11 7.83-18.457 17.338a710 710 0 0 1-20.975 19.017q-10.907 9.51-20.135 16.22-10.347 7.831-22.652 15.102a255 255 0 0 1-24.61 12.585q-12.585 5.313-24.89 8.669t-23.212 3.356zm135.914-35.796q4.194-3.915 10.068-8.95a465 465 0 0 1 12.864-11.186q6.991-5.873 14.263-12.025a733 733 0 0 1 14.822-12.305q11.745-9.51 22.093-17.339a446 446 0 0 1 21.254-15.66v-.28q-6.152 2.236-13.424 3.355-6.991.84-13.424 1.119-4.753 0-10.627-.28-5.593-.559-10.906-1.118-5.034 7.27-11.187 17.339a1986 1986 0 0 0-12.305 20.415 950 950 0 0 1-12.305 20.135q-6.152 9.789-11.186 16.5z"/><defs><linearGradient id="a" x1="4.92" x2="253.899" y1="61.84" y2="61.84" gradientUnits="userSpaceOnUse"><stop stop-color="#f6df75"/><stop offset=".587" stop-color="#ffb200"/><stop offset=".793" stop-color="#fbe47c"/><stop offset=".976" stop-color="#efd86e"/></linearGradient></defs></svg>
